common/icons/svgs/smartphone.svg

<svg xmlns="http://www.w3.org/2000/svg" width="24" height="24" viewBox="0 0 24 24">
  <g fill="none" fill-rule="evenodd" transform="translate(-168 -318)">
    <rect width="504" height="450" fill="#FFF"/>
    <g transform="translate(168 318)">
      <rect width="24" height="24"/>
      <g fill="#000" fill-rule="nonzero" transform="translate(5 1)">
        <path d="M10,0.69 L4.38,0.69 C2.170861,0.69 0.38,2.480861 0.38,4.69 L0.38,17.78 C0.38,19.989139 2.170861,21.78 4.38,21.78 L10,21.78 C12.209139,21.78 14,19.989139 14,17.78 L14,4.67 C13.9889932,2.46867549 12.201352,0.689972483 10,0.69 Z M2.39,6.75 L12,6.75 L12,13.32 L2.39,13.32 L2.39,6.75 Z M4.39,2.69 L10,2.69 C11.1045695,2.69 12,3.5854305 12,4.69 L12,4.77 L2.39,4.77 L2.39,4.67 C2.40091581,3.57713439 3.28709327,2.69541009 4.38,2.69 L4.39,2.69 Z M10,19.77 L4.38,19.77 C3.2754305,19.77 2.38,18.8745695 2.38,17.77 L2.38,15.32 L12,15.32 L12,17.79 C11.9890319,18.8867511 11.0968059,19.7700548 10,19.77 L10,19.77 Z"/>
        <circle cx="7.2" cy="17.41" r="1.25"/>
      </g>
    </g>
  </g>
</svg>

<svg xmlns="http://www.w3.org/2000/svg" viewbox="0 0 24 24"><g class="icon__shape" fill-rule="nonzero" transform="translate(5 1)"><path d="M10 .69H4.38a4 4 0 0 0-4 4v13.09a4 4 0 0 0 4 4H10a4 4 0 0 0 4-4V4.67a4 4 0 0 0-4-3.98zM2.39 6.75H12v6.57H2.39V6.75zm2-4.06H10a2 2 0 0 1 2 2v.08H2.39v-.1a2 2 0 0 1 1.99-1.98h.01zM10 19.77H4.38a2 2 0 0 1-2-2v-2.45H12v2.47a2 2 0 0 1-2 1.98z"/><circle cx="7.2" cy="17.41" r="1.25"/></g></svg>
